!!!SOCIAL_FUNCTION:	songs used in the treatment of the sick
!!!PDT:	1929
!!!OTL: No_56_Song_to_a_Little_Yellow_Wasp.krn
!!!REG: Southwest
!!!LANG: Non-Tone
!!!LING_GROUP: Uto-Aztecan
**kern
*staff1
=1-
*clefF4
*k[f#]
*M2/4
4.B\
8A\
=2
4G\
8B\L
8A\J
=3||
*M3/4
8G\L
8G\J
8G\L
8G\J
8G\L
16E\Jk
16r
=4||
*M5/8
8G\L
8A\
8A\
8.A\
16G\Jk
=5||
*M2/4
4A\
4A\
=6
16G\
16r
8A\
8A\L
8A\J
=7||
*M3/8
4A\
16G\
16r
=8
8A\L
8G\
8G\J
=9||
*M5/8
8E\L
8D\J
4E\
8r
=10||
*M3/8
8G\L
8G\
8G\J
=11||
*M2/4
8A\L
8A\J
4A\
=12||
*M5/8
8A\L
8G\
8A\
16G\L
[16G\J
8G\J]
=13
8E\L
8D\J
4E\
16D\
16r
=14||
*M3/4
4G\
4E\
8E\L
8D\J
=15||
*M3/8
8G\L
16G\L
16G\J
8G\J
=16||
*M2/4
4E\
8E\L
[8E\J
=17
2E\]
==
*-
